X: 21041
T: STEPHENSON'S FANCY HORNPIPE
C: By T. Corner
R: reel
B: K\"ohler's Violin Repository, v.2, 1885 p.104 #1
F: http://www.archive.org/details/klersviolinrepos02rugg
Z: 2012 John Chambers <jc:trillian.mit.edu>
M: C|
L: 1/8
K: A
(ucd) |\
({f}e>^d)e>f (e>=d)c>B | (A>c)e>g (a>g)f>e | (f>e)^d>e (f>e)a>e | (d>c)e>d (B>c)d>^d |
({f}e>^d)e>f (e>=d)c>B | (A>c)e>g (a>g)f>e | (d>c)f>d (c>B)A>G | B2A2 A2 :|
|: (uB>A) |\
(3GAB (3ABc d2(c>B) | (3Ace (3Ace a2(g>f) | (3agf (3edc (3fed (3cBA | (3GAB (3AGF E2(B>A) |
(3GAB (3ABc (3Bcd (3cde | (3def (3efg a2 ((3efg) | (3agf (3edc (3fed (3cBA | (3gab (3efg a2 :|

%%sep 2 1 500

